docs/.gitbook/assets/icon-humidity-16@light.svg

<svg width="32" height="32" viewBox="0 0 16 16" fill="none" xmlns="http://www.w3.org/2000/svg">
<rect x="0" y="0" width="16" height="16" fill="#fff"/>
<path fill-rule="evenodd" clip-rule="evenodd" d="M8.69443 3.44597C10.2698 2.43774 12.2349 2.25168 13.9715 2.94632C14.356 3.10015 14.7925 2.91309 14.9464 2.5285C15.1002 2.14392 14.9131 1.70744 14.5285 1.5536C12.3425 0.679198 9.8689 0.913412 7.88585 2.18257L7.59571 2.36826L7.58518 2.37499L7.57489 2.38207L7.28808 2.5794C5.74759 3.63926 3.76185 3.80663 2.06568 3.01959C1.68994 2.84524 1.24402 3.0085 1.06967 3.38423C0.895323 3.75996 1.05858 4.20589 1.43431 4.38024C3.61168 5.39057 6.16076 5.17571 8.13829 3.81517L8.41481 3.62493L8.69443 3.44597ZM11.5 8.74996L12.1168 8.32331C11.9768 8.12081 11.7462 7.99996 11.5 7.99996C11.2538 7.99996 11.0232 8.12081 10.8832 8.32331L11.5 8.74996ZM11.5 8.74996C12.1168 8.32331 12.1169 8.32338 12.1169 8.32346L12.1171 8.32367L12.1175 8.32426L12.1188 8.32614L12.1232 8.33261L12.1393 8.35614C12.1531 8.3764 12.173 8.40567 12.198 8.44299C12.2481 8.51758 12.3189 8.6245 12.4037 8.75595C12.5728 9.01818 12.7994 9.38126 13.0271 9.78195C13.2534 10.1803 13.4882 10.6286 13.6684 11.0591C13.8388 11.4661 14 11.947 14 12.38C14 13.8648 12.9095 15 11.5 15C10.0905 15 9 13.8648 9 12.38C9 11.947 9.16122 11.4661 9.33162 11.0591C9.51184 10.6286 9.74657 10.1803 9.97291 9.78195C10.2006 9.38126 10.4272 9.01818 10.5963 8.75595C10.6811 8.6245 10.7519 8.51758 10.802 8.44299C10.827 8.40567 10.8469 8.3764 10.8607 8.35614L10.8768 8.33261L10.8812 8.32614L10.8825 8.32426L10.8829 8.32367L10.8831 8.32346C10.8831 8.32338 10.8832 8.32331 11.5 8.74996ZM11.2771 10.523C11.3521 10.391 11.4272 10.263 11.5 10.1418C11.5728 10.263 11.6479 10.391 11.7229 10.523C11.9341 10.8946 12.1368 11.2851 12.2847 11.6383C12.4425 12.0151 12.5 12.263 12.5 12.38C12.5 13.0952 12.0235 13.5 11.5 13.5C10.9765 13.5 10.5 13.0952 10.5 12.38C10.5 12.263 10.5575 12.0151 10.7153 11.6383C10.8632 11.2851 11.0659 10.8946 11.2771 10.523ZM13.9715 6.94632C12.2349 6.25168 10.2698 6.43774 8.69443 7.44597L8.41481 7.62493L8.13829 7.81517C6.16076 9.17571 3.61168 9.39057 1.43431 8.38024C1.05858 8.20589 0.895323 7.75996 1.06967 7.38423C1.24402 7.0085 1.68994 6.84524 2.06568 7.01959C3.76185 7.80663 5.74759 7.63926 7.28808 6.5794L7.57489 6.38207L7.58518 6.37499L7.59571 6.36826L7.88585 6.18257C9.8689 4.91341 12.3425 4.6792 14.5285 5.5536C14.9131 5.70744 15.1002 6.14392 14.9464 6.5285C14.7925 6.91309 14.356 7.10015 13.9715 6.94632ZM7.33658 12.2893C7.70674 12.1034 7.85612 11.6527 7.67023 11.2825C7.48434 10.9124 7.03357 10.763 6.66341 10.9489C5.23391 11.6668 3.54028 11.7039 2.06568 11.0196C1.68994 10.8453 1.24402 11.0085 1.06967 11.3843C0.895323 11.76 1.05858 12.2059 1.43431 12.3803C3.32746 13.2587 5.50144 13.2109 7.33658 12.2893Z" fill="#000"/>
</svg>

<svg xmlns="http://www.w3.org/2000/svg" width="32" height="32" fill="none" viewBox="0 0 16 16"><path fill="#fff" d="M0 0h16v16H0z"/><path fill="#000" fill-rule="evenodd" d="M8.694 3.446a5.8 5.8 0 0 1 5.278-.5.75.75 0 0 0 .556-1.392 7.3 7.3 0 0 0-6.642.629l-.29.185-.01.007-.011.007-.287.197a5.29 5.29 0 0 1-5.222.44.75.75 0 1 0-.632 1.361 6.79 6.79 0 0 0 6.704-.565l.277-.19zM11.5 8.75l.617-.427a.75.75 0 0 0-1.234 0zm0 0 .617-.427v.001l.002.002.004.007.016.023a13 13 0 0 1 .265.4c.169.262.395.625.623 1.026.226.398.461.847.641 1.277.17.407.332.888.332 1.321 0 1.485-1.09 2.62-2.5 2.62S9 13.865 9 12.38c0-.433.161-.914.332-1.32.18-.431.415-.88.64-1.278a22 22 0 0 1 .889-1.426l.016-.023.004-.007.002-.002zm-.223 1.773q.113-.199.223-.381.11.182.223.381c.211.372.414.762.562 1.115.158.377.215.625.215.742 0 .715-.476 1.12-1 1.12s-1-.405-1-1.12c0-.117.057-.365.215-.742.148-.353.35-.743.562-1.115m2.695-3.577a5.8 5.8 0 0 0-5.278.5l-.28.179-.276.19a6.79 6.79 0 0 1-6.704.565.75.75 0 0 1 .632-1.36 5.29 5.29 0 0 0 5.222-.44l.287-.198.01-.007.01-.007.29-.185a7.3 7.3 0 0 1 6.643-.63.75.75 0 0 1-.556 1.393M7.337 12.29a.75.75 0 1 0-.674-1.34 5.29 5.29 0 0 1-4.597.07.75.75 0 0 0-.632 1.361 6.79 6.79 0 0 0 5.903-.09" clip-rule="evenodd"/></svg>
